style-guide/assets/xd-icons-users-small.svg

<svg viewBox="0 0 18 18" xmlns="http://www.w3.org/2000/svg">
    <path d="M6 8c1.103 0 2-.897 2-2s-.897-2-2-2-2 .897-2 2 .897 2 2 2m0 2c-3.309 0-6 2.691-6 6a1 1 0 1 0 2 0c0-2.206 1.794-4 4-4s4 1.794 4 4a1 1 0 1 0 2 0c0-3.309-2.691-6-6-6m6-5c1.103 0 2-.897 2-2s-.897-2-2-2-2 .897-2 2 .897 2 2 2m0 2a1 1 0 1 0 0 2c2.206 0 4 1.794 4 4a1 1 0 1 0 2 0c0-3.309-2.691-6-6-6"/>
</svg>

<?xml version="1.0" encoding="UTF-8"?>
<svg width="18px" height="18px" viewBox="0 0 18 18" version="1.1" xmlns="http://www.w3.org/2000/svg" xmlns:xlink="http://www.w3.org/1999/xlink">
    <!-- Generator: Sketch 51.3 (57544) - http://www.bohemiancoding.com/sketch -->
    <title>users</title>
    <desc>Created with Sketch.</desc>
    <defs>
        <path d="M6,8 C7.103,8 8,7.103 8,6 C8,4.897 7.103,4 6,4 C4.897,4 4,4.897 4,6 C4,7.103 4.897,8 6,8 M6,10 C2.691,10 0,12.691 0,16 C0,16.553 0.447,17 1,17 C1.553,17 2,16.553 2,16 C2,13.794 3.794,12 6,12 C8.206,12 10,13.794 10,16 C10,16.553 10.447,17 11,17 C11.553,17 12,16.553 12,16 C12,12.691 9.309,10 6,10 M12,5 C13.103,5 14,4.103 14,3 C14,1.897 13.103,1 12,1 C10.897,1 10,1.897 10,3 C10,4.103 10.897,5 12,5 M12,7 C11.447,7 11,7.447 11,8 C11,8.553 11.447,9 12,9 C14.206,9 16,10.794 16,13 C16,13.553 16.447,14 17,14 C17.553,14 18,13.553 18,13 C18,9.691 15.309,7 12,7" id="path-1"></path>
    </defs>
    <g id="users" stroke="none" stroke-width="1" fill="none" fill-rule="evenodd">
        <mask id="mask-2" fill="white">
            <use xlink:href="#path-1"></use>
        </mask>
        <use id="icons/18px/Users" fill="#000000" xlink:href="#path-1"></use>
    </g>
</svg>
